neru-light-classic/22x22/actions/insert-image-symbolic.svg

<?xml version="1.0" encoding="UTF-8" standalone="no"?>
<svg
   xmlns:dc="http://purl.org/dc/elements/1.1/"
   xmlns:cc="http://creativecommons.org/ns#"
   xmlns:rdf="http://www.w3.org/1999/02/22-rdf-syntax-ns#"
   xmlns:svg="http://www.w3.org/2000/svg"
   xmlns="http://www.w3.org/2000/svg"
   xmlns:sodipodi="http://sodipodi.sourceforge.net/DTD/sodipodi-0.dtd"
   xmlns:inkscape="http://www.inkscape.org/namespaces/inkscape"
   width="22"
   height="22"
   viewBox="0 0 22 22"
   version="1.1"
   id="svg7"
   sodipodi:docname="insert-image-symbolic.svg"
   inkscape:version="0.92.1 r">
  <metadata
     id="metadata11">
    <rdf:RDF>
      <cc:Work
         rdf:about="">
        <dc:format>image/svg+xml</dc:format>
        <dc:type
           rdf:resource="http://purl.org/dc/dcmitype/StillImage" />
        <dc:title></dc:title>
      </cc:Work>
    </rdf:RDF>
  </metadata>
  <sodipodi:namedview
     pagecolor="#ffffff"
     bordercolor="#666666"
     borderopacity="1"
     objecttolerance="10"
     gridtolerance="10"
     guidetolerance="10"
     inkscape:pageopacity="0"
     inkscape:pageshadow="2"
     inkscape:window-width="769"
     inkscape:window-height="480"
     id="namedview9"
     showgrid="false"
     inkscape:zoom="10.727273"
     inkscape:cx="11"
     inkscape:cy="11"
     inkscape:window-x="0"
     inkscape:window-y="0"
     inkscape:window-maximized="0"
     inkscape:current-layer="svg7" />
  <defs
     id="defs3">
    <style
       type="text/css"
       id="current-color-scheme">
   .ColorScheme-Text { color:#1e333d; } .ColorScheme-Highlight { color:#3fb7ff; }
  </style>
  </defs>
  <path
     style="fill:currentColor;opacity:1"
     class="ColorScheme-Text"
     transform="translate(3 3)"
     d="M 3 0.00390625 C 2 0.00390625 2 1.0039062 2 1.0039062 L 2 9 C 2.00003 10 3 10 3 10 L 13 10 C 13 10 14 10 14 9 L 14 1.0039062 C 13.99997 0.0039063 13 0.00390625 13 0.00390625 L 3 0.00390625 z M 6 3.5 L 9 6.5 L 10.5 5 L 12 6.5 L 12 8 L 4 8 L 4 5.5 L 6 3.5 z M 5 12 L 8 16 L 11 12 L 5 12 z"
     id="path5" />
</svg>

<svg xmlns="http://www.w3.org/2000/svg" width="22" height="22" version="1.1" id="svg7"><defs id="defs3"><style type="text/css" id="current-color-scheme"></style></defs><path transform="translate(3 3)" d="M3 .004c-1 0-1 1-1 1V9c0 1 1 1 1 1h10s1 0 1-1V1.004c0-1-1-1-1-1H3zM6 3.5l3 3L10.5 5 12 6.5V8H4V5.5l2-2zM5 12l3 4 3-4H5z" id="path5" fill="currentColor" opacity="1" color="#1e333d"/></svg>
